packages/sources/icons/src/vitamix/camera-fill.svg

<svg width="16" height="16" viewBox="0 0 16 16" fill="none" xmlns="http://www.w3.org/2000/svg">
<path fill-rule="evenodd" clip-rule="evenodd" d="M6.66665 1.33334H2.66665V2.66668H6.66665V1.33334ZM1.99464 3.33334C1.63664 3.33334 1.33331 3.63201 1.33331 4.00001V13.3333C1.33225 13.5096 1.40141 13.6789 1.52551 13.804C1.64961 13.9291 1.81843 13.9997 1.99464 14H14.0053C14.3633 14 14.6666 13.7013 14.6666 13.3333V4.00001C14.6666 3.63001 14.3706 3.33334 14.0053 3.33334H1.99464ZM12.6666 8.66668C12.6666 10.5076 11.1743 12 9.33331 12C7.49237 12 5.99998 10.5076 5.99998 8.66668C5.99998 6.82573 7.49237 5.33334 9.33331 5.33334C11.1743 5.33334 12.6666 6.82573 12.6666 8.66668ZM2.66665 4.66668V6.00001H4.66665V4.66668H2.66665Z" fill="#001018"/>
</svg>

<svg width="16" height="16" fill="none" xmlns="http://www.w3.org/2000/svg"><path fill-rule="evenodd" clip-rule="evenodd" d="M6.667 1.333h-4v1.334h4V1.333zm-4.672 2A.669.669 0 0 0 1.333 4v9.333a.663.663 0 0 0 .662.667h12.01a.669.669 0 0 0 .662-.667V4a.663.663 0 0 0-.662-.667H1.995zm10.672 5.334a3.333 3.333 0 1 1-6.667 0 3.333 3.333 0 0 1 6.667 0zm-10-4V6h2V4.667h-2z" fill="#001018"/></svg>
